symbols/web/sailing/materialsymbolsoutlined/sailing_wght500grad200_48px.svg

<svg xmlns="http://www.w3.org/2000/svg" height="48" width="48"><path d="m5.65 27.05 16.1-23.4v23.4Zm7.15-3.75H18v-7.8Zm12.45 3.75q1.1-3.45 1.5-6.4.4-2.95.4-6.5 0-3.45-.4-6.675Q26.35 4.25 25.2.9q2.6 1.1 5.5 3.575t5.375 5.95q2.475 3.475 4.15 7.725 1.675 4.25 1.825 8.9Zm4.65-3.75h7.95q-.85-3.8-2.9-7.625T30.5 9.3q.2 1.3.3 2.575.1 1.275.1 2.275 0 2.2-.325 4.775T29.9 23.3ZM18 37.95q-1.65 0-3.2-.875-1.55-.875-2.8-2.225-.8.8-1.975 1.5T7.8 37.3q-1.25-.75-2.475-2.575Q4.1 32.9 3.65 30.75h40.7q-.45 2.15-1.675 3.975Q41.45 36.55 40.25 37.3q-1.1-.25-2.275-.95-1.175-.7-1.975-1.5-1.25 1.35-2.8 2.225-1.55.875-3.2.875-1.65 0-3.2-.875-1.55-.875-2.8-2.225-1.25 1.35-2.8 2.225-1.55.875-3.2.875ZM3.65 46.5v-3.75H6q1.55 0 3.025-.525Q10.5 41.7 12 40.25q1.5 1.45 3 1.975 1.5.525 3 .525 1.55 0 3.05-.525 1.5-.525 2.95-1.975 1.5 1.45 3 1.975 1.5.525 3 .525 1.55 0 3.05-.525 1.5-.525 2.95-1.975 1.45 1.45 2.95 1.975 1.5.525 3.05.525h2.4v3.75H42q-1.45 0-2.975-.425Q37.5 45.65 36 44.55q-1.5 1.1-3.025 1.525Q31.45 46.5 30 46.5q-1.45 0-2.975-.425Q25.5 45.65 24 44.55q-1.5 1.1-3.025 1.525Q19.45 46.5 18 46.5q-1.45 0-2.975-.425Q13.5 45.65 12 44.55q-1.5 1.1-3.025 1.525Q7.45 46.5 6 46.5ZM18 23.3Zm11.9 0Z"/></svg>

<svg xmlns="http://www.w3.org/2000/svg" height="48" width="48"><path d="M5.65 27.05 21.75 3.65V27.05ZM12.8 23.3H18V15.5ZM25.25 27.05Q26.35 23.6 26.75 20.65Q27.15 17.7 27.15 14.15Q27.15 10.7 26.75 7.475Q26.35 4.25 25.2 0.9Q27.8 2 30.7 4.475Q33.6 6.95 36.075 10.425Q38.55 13.9 40.225 18.15Q41.9 22.4 42.05 27.05ZM29.9 23.3H37.85Q37 19.5 34.95 15.675Q32.9 11.85 30.5 9.3Q30.7 10.6 30.8 11.875Q30.9 13.15 30.9 14.15Q30.9 16.35 30.575 18.925Q30.25 21.5 29.9 23.3ZM18 37.95Q16.35 37.95 14.8 37.075Q13.25 36.2 12 34.85Q11.2 35.65 10.025 36.35Q8.85 37.05 7.8 37.3Q6.55 36.55 5.325 34.725Q4.1 32.9 3.65 30.75H44.35Q43.9 32.9 42.675 34.725Q41.45 36.55 40.25 37.3Q39.15 37.05 37.975 36.35Q36.8 35.65 36 34.85Q34.75 36.2 33.2 37.075Q31.65 37.95 30 37.95Q28.35 37.95 26.8 37.075Q25.25 36.2 24 34.85Q22.75 36.2 21.2 37.075Q19.65 37.95 18 37.95ZM3.65 46.5V42.75H6Q7.55 42.75 9.025 42.225Q10.5 41.7 12 40.25Q13.5 41.7 15 42.225Q16.5 42.75 18 42.75Q19.55 42.75 21.05 42.225Q22.55 41.7 24 40.25Q25.5 41.7 27 42.225Q28.5 42.75 30 42.75Q31.55 42.75 33.05 42.225Q34.55 41.7 36 40.25Q37.45 41.7 38.95 42.225Q40.45 42.75 42 42.75H44.4V46.5H42Q40.55 46.5 39.025 46.075Q37.5 45.65 36 44.55Q34.5 45.65 32.975 46.075Q31.45 46.5 30 46.5Q28.55 46.5 27.025 46.075Q25.5 45.65 24 44.55Q22.5 45.65 20.975 46.075Q19.45 46.5 18 46.5Q16.55 46.5 15.025 46.075Q13.5 45.65 12 44.55Q10.5 45.65 8.975 46.075Q7.45 46.5 6 46.5ZM18 23.3ZM29.9 23.3Q29.9 23.3 29.9 23.3Q29.9 23.3 29.9 23.3Q29.9 23.3 29.9 23.3Q29.9 23.3 29.9 23.3Q29.9 23.3 29.9 23.3Q29.9 23.3 29.9 23.3Z"/></svg>
